X: 18530
T: I Have A Bonnet Trimmed With Blue
R: polka
M: 2/4
K: Gmajor
|:G>A Be|dB B2|d>e ^cA|GA B2|
G>A Be|dB B2|d>e ^cA|G2 G2:|
|:e>f g/f/e|dB B2 d>e ^cA|GA B2|
e>f g/f/e|dB B2|d>e ^cA|G2 G2:|

